packages/foundations/assets/icons/functional/images/devices/printer_12_filled.svg

<svg width="12" height="12" viewBox="0 0 12 12" fill="none" xmlns="http://www.w3.org/2000/svg">
<g clip-path="url(#clip0_2204_2769)">
<path fill-rule="evenodd" clip-rule="evenodd" d="M8.39995 1.20001C8.71215 1.20001 9.00483 1.43355 9.00483 1.74635V2.39026H9.82434C10.3707 2.39026 10.8 2.83868 10.8 3.36587V6.76099C10.8 7.28782 10.4097 7.79513 9.88288 7.79513H9.00483V10.1951C9.00483 10.5073 8.77133 10.8 8.478 10.8H3.59995C3.28776 10.8 2.99507 10.5659 2.99507 10.2732V7.79513H2.17556C1.62922 7.79513 1.19995 7.34635 1.19995 6.81952V3.44392C1.19995 2.89757 1.5902 2.39026 2.11702 2.39026H2.99507V1.80489C2.99507 1.49269 3.22861 1.20001 3.54141 1.20001H8.39995ZM7.79995 6.60001H4.19995V9.60001H7.79995V6.60001ZM4.79995 3.60001H2.99995V4.80001H4.79995V3.60001Z" fill="#1A1C1F"/>
</g>
<defs>
<clipPath id="clip0_2204_2769">
<rect width="12" height="12" fill="white"/>
</clipPath>
</defs>
</svg>

<svg xmlns="http://www.w3.org/2000/svg" width="12" height="12" fill="none"><g clip-path="url(#a)"><path fill="#1A1C1F" fill-rule="evenodd" d="M8.4 1.2c.312 0 .605.234.605.546v.644h.82c.546 0 .975.449.975.976V6.76c0 .527-.39 1.034-.917 1.034h-.878v2.4c0 .312-.234.605-.527.605H3.6c-.312 0-.605-.234-.605-.527V7.795h-.82A.98.98 0 0 1 1.2 6.82V3.444c0-.546.39-1.054.917-1.054h.878v-.585c0-.312.234-.605.546-.605zm-.6 5.4H4.2v3h3.6zm-3-3H3v1.2h1.8z" clip-rule="evenodd"/></g><defs><clipPath id="a"><path fill="#fff" d="M0 0h12v12H0z"/></clipPath></defs></svg>
